images/37320.svg

<?xml version="1.0" encoding="UTF-8"?>
<svg xmlns="http://www.w3.org/2000/svg" xmlns:xlink="http://www.w3.org/1999/xlink" width="300pt" height="300pt" viewBox="0 0 300 300" version="1.1">
<defs>
<g>
<symbol overflow="visible" id="glyph0-0">
<path style="stroke:none;" d="M 0.453125 1.59375 L 0.453125 -6.34375 L 4.953125 -6.34375 L 4.953125 1.59375 Z M 0.953125 1.09375 L 4.453125 1.09375 L 4.453125 -5.84375 L 0.953125 -5.84375 Z M 0.953125 1.09375 "/>
</symbol>
<symbol overflow="visible" id="glyph0-1">
<path style="stroke:none;" d="M 3.546875 -5.953125 C 2.898438 -5.953125 2.382812 -5.710938 2 -5.234375 C 1.625 -4.753906 1.4375 -4.101562 1.4375 -3.28125 C 1.4375 -2.445312 1.625 -1.789062 2 -1.3125 C 2.382812 -0.832031 2.898438 -0.59375 3.546875 -0.59375 C 4.191406 -0.59375 4.703125 -0.832031 5.078125 -1.3125 C 5.453125 -1.789062 5.640625 -2.445312 5.640625 -3.28125 C 5.640625 -4.101562 5.453125 -4.753906 5.078125 -5.234375 C 4.703125 -5.710938 4.191406 -5.953125 3.546875 -5.953125 Z M 3.546875 -6.6875 C 4.460938 -6.6875 5.195312 -6.375 5.75 -5.75 C 6.300781 -5.132812 6.578125 -4.3125 6.578125 -3.28125 C 6.578125 -2.238281 6.300781 -1.410156 5.75 -0.796875 C 5.195312 -0.179688 4.460938 0.125 3.546875 0.125 C 2.617188 0.125 1.878906 -0.179688 1.328125 -0.796875 C 0.773438 -1.410156 0.5 -2.238281 0.5 -3.28125 C 0.5 -4.3125 0.773438 -5.132812 1.328125 -5.75 C 1.878906 -6.375 2.617188 -6.6875 3.546875 -6.6875 Z M 3.546875 -6.6875 "/>
</symbol>
<symbol overflow="visible" id="glyph0-2">
<path style="stroke:none;" d="M 0.890625 -6.5625 L 2.078125 -6.5625 L 4.984375 -1.078125 L 4.984375 -6.5625 L 5.84375 -6.5625 L 5.84375 0 L 4.65625 0 L 1.75 -5.484375 L 1.75 0 L 0.890625 0 Z M 0.890625 -6.5625 "/>
</symbol>
<symbol overflow="visible" id="glyph0-3">
<path style="stroke:none;" d="M 0.890625 -6.5625 L 1.765625 -6.5625 L 1.765625 -3.875 L 5 -3.875 L 5 -6.5625 L 5.890625 -6.5625 L 5.890625 0 L 5 0 L 5 -3.125 L 1.765625 -3.125 L 1.765625 0 L 0.890625 0 Z M 0.890625 -6.5625 "/>
</symbol>
<symbol overflow="visible" id="glyph1-0">
<path style="stroke:none;" d="M 0.40625 1.421875 L 0.40625 -5.640625 L 4.40625 -5.640625 L 4.40625 1.421875 Z M 0.84375 0.96875 L 3.953125 0.96875 L 3.953125 -5.1875 L 0.84375 -5.1875 Z M 0.84375 0.96875 "/>
</symbol>
<symbol overflow="visible" id="glyph1-1">
<path style="stroke:none;" d="M 3.6875 -5.015625 L 3.6875 -2.84375 L 5.859375 -2.84375 L 5.859375 -2.171875 L 3.6875 -2.171875 L 3.6875 0 L 3.03125 0 L 3.03125 -2.171875 L 0.84375 -2.171875 L 0.84375 -2.84375 L 3.03125 -2.84375 L 3.03125 -5.015625 Z M 3.6875 -5.015625 "/>
</symbol>
</g>
</defs>
<g id="surface14297">
<rect x="0" y="0" width="300" height="300" style="fill:rgb(100%,100%,100%);fill-opacity:1;stroke:none;"/>
<path style="fill:none;stroke-width:1.2;stroke-linecap:butt;stroke-linejoin:miter;stroke:rgb(100%,0%,0%);stroke-opacity:1;stroke-miterlimit:10;" d="M 43.15625 111.664062 L 51.296875 118.648438 "/>
<path style="fill:none;stroke-width:1.2;stroke-linecap:butt;stroke-linejoin:miter;stroke:rgb(0%,0%,100%);stroke-opacity:1;stroke-miterlimit:10;" d="M 51.296875 118.648438 L 59.4375 125.628906 "/>
<path style="fill:none;stroke-width:1.2;stroke-linecap:butt;stroke-linejoin:miter;stroke:rgb(100%,0%,0%);stroke-opacity:1;stroke-miterlimit:10;" d="M 43.15625 111.664062 L 45.132812 101.125 "/>
<path style="fill:none;stroke-width:1.2;stroke-linecap:butt;stroke-linejoin:miter;stroke:rgb(0%,0%,0%);stroke-opacity:1;stroke-miterlimit:10;" d="M 45.132812 101.125 L 47.109375 90.582031 "/>
<path style=" stroke:none;fill-rule:nonzero;fill:rgb(100%,100%,100%);fill-opacity:1;" d="M 39.15625 106.164062 L 47.15625 106.164062 L 47.15625 117.164062 L 39.15625 117.164062 Z M 39.15625 106.164062 "/>
<g style="fill:rgb(100%,0%,0%);fill-opacity:1;">
  <use xlink:href="#glyph0-1" x="39.15625" y="114.827148"/>
</g>
<path style="fill:none;stroke-width:1.2;stroke-linecap:butt;stroke-linejoin:miter;stroke:rgb(0%,0%,100%);stroke-opacity:1;stroke-miterlimit:10;" d="M 59.4375 125.628906 L 57.460938 136.171875 "/>
<path style="fill:none;stroke-width:1.2;stroke-linecap:butt;stroke-linejoin:miter;stroke:rgb(0%,0%,0%);stroke-opacity:1;stroke-miterlimit:10;" d="M 57.460938 136.171875 L 55.484375 146.710938 "/>
<path style=" stroke:none;fill-rule:nonzero;fill:rgb(100%,100%,100%);fill-opacity:1;" d="M 52.4375 120.128906 L 66.4375 120.128906 L 66.4375 131.128906 L 52.4375 131.128906 Z M 52.4375 120.128906 "/>
<g style="fill:rgb(0%,0%,100%);fill-opacity:1;">
  <use xlink:href="#glyph0-2" x="52.4375" y="128.791992"/>
  <use xlink:href="#glyph0-3" x="59.415039" y="128.791992"/>
</g>
<path style="fill:none;stroke-width:1.2;stroke-linecap:butt;stroke-linejoin:miter;stroke:rgb(0%,0%,0%);stroke-opacity:1;stroke-miterlimit:10;" d="M 54.648438 144.332031 L 44.53125 147.890625 "/>
<path style="fill:none;stroke-width:1.2;stroke-linecap:butt;stroke-linejoin:miter;stroke:rgb(100%,0%,0%);stroke-opacity:1;stroke-miterlimit:10;" d="M 44.53125 147.890625 L 34.414062 151.449219 "/>
<path style="fill:none;stroke-width:1.2;stroke-linecap:butt;stroke-linejoin:miter;stroke:rgb(0%,0%,0%);stroke-opacity:1;stroke-miterlimit:10;" d="M 56.320312 149.089844 L 46.203125 152.648438 "/>
<path style="fill:none;stroke-width:1.2;stroke-linecap:butt;stroke-linejoin:miter;stroke:rgb(100%,0%,0%);stroke-opacity:1;stroke-miterlimit:10;" d="M 46.203125 152.648438 L 36.085938 156.207031 "/>
<path style="fill:none;stroke-width:1.2;stroke-linecap:butt;stroke-linejoin:miter;stroke:rgb(0%,0%,0%);stroke-opacity:1;stroke-miterlimit:10;" d="M 55.484375 146.710938 L 71.765625 160.675781 "/>
<path style=" stroke:none;fill-rule:nonzero;fill:rgb(100%,100%,100%);fill-opacity:1;" d="M 27.25 148.328125 L 35.25 148.328125 L 35.25 159.328125 L 27.25 159.328125 Z M 27.25 148.328125 "/>
<g style="fill:rgb(100%,0%,0%);fill-opacity:1;">
  <use xlink:href="#glyph0-1" x="27.25" y="156.991211"/>
</g>
<path style="fill:none;stroke-width:1.2;stroke-linecap:butt;stroke-linejoin:miter;stroke:rgb(0%,0%,0%);stroke-opacity:1;stroke-miterlimit:10;" d="M 71.765625 160.675781 L 92 153.558594 "/>
<path style="fill:none;stroke-width:1.2;stroke-linecap:butt;stroke-linejoin:miter;stroke:rgb(0%,0%,0%);stroke-opacity:1;stroke-miterlimit:10;" d="M 75.460938 164.726562 L 91.648438 159.03125 "/>
<path style="fill:none;stroke-width:1.2;stroke-linecap:butt;stroke-linejoin:miter;stroke:rgb(0%,0%,0%);stroke-opacity:1;stroke-miterlimit:10;" d="M 67.8125 181.757812 L 71.765625 160.675781 "/>
<path style="fill:none;stroke-width:1.2;stroke-linecap:butt;stroke-linejoin:miter;stroke:rgb(0%,0%,0%);stroke-opacity:1;stroke-miterlimit:10;" d="M 92 153.558594 L 108.277344 167.523438 "/>
<path style="fill:none;stroke-width:1.2;stroke-linecap:butt;stroke-linejoin:miter;stroke:rgb(0%,0%,0%);stroke-opacity:1;stroke-miterlimit:10;" d="M 108.277344 167.523438 L 118.394531 163.964844 "/>
<path style="fill:none;stroke-width:1.2;stroke-linecap:butt;stroke-linejoin:miter;stroke:rgb(0%,0%,100%);stroke-opacity:1;stroke-miterlimit:10;" d="M 118.394531 163.964844 L 128.511719 160.40625 "/>
<path style="fill:none;stroke-width:1.2;stroke-linecap:butt;stroke-linejoin:miter;stroke:rgb(0%,0%,0%);stroke-opacity:1;stroke-miterlimit:10;" d="M 108.277344 167.523438 L 104.324219 188.605469 "/>
<path style="fill:none;stroke-width:1.2;stroke-linecap:butt;stroke-linejoin:miter;stroke:rgb(0%,0%,0%);stroke-opacity:1;stroke-miterlimit:10;" d="M 102.921875 168.699219 L 99.761719 185.566406 "/>
<path style="fill:none;stroke-width:1.2;stroke-linecap:butt;stroke-linejoin:miter;stroke:rgb(0%,0%,100%);stroke-opacity:1;stroke-miterlimit:10;" d="M 128.511719 160.40625 L 136.652344 167.386719 "/>
<path style="fill:none;stroke-width:1.2;stroke-linecap:butt;stroke-linejoin:miter;stroke:rgb(0%,0%,0%);stroke-opacity:1;stroke-miterlimit:10;" d="M 136.652344 167.386719 L 144.792969 174.371094 "/>
<path style=" stroke:none;fill-rule:nonzero;fill:rgb(100%,100%,100%);fill-opacity:1;" d="M 121.511719 154.90625 L 135.511719 154.90625 L 135.511719 165.90625 L 121.511719 165.90625 Z M 121.511719 154.90625 "/>
<g style="fill:rgb(0%,0%,100%);fill-opacity:1;">
  <use xlink:href="#glyph0-2" x="121.511719" y="163.569336"/>
  <use xlink:href="#glyph0-3" x="128.489258" y="163.569336"/>
</g>
<path style="fill:none;stroke-width:1.2;stroke-linecap:butt;stroke-linejoin:miter;stroke:rgb(0%,0%,0%);stroke-opacity:1;stroke-miterlimit:10;" d="M 144.792969 174.371094 L 142.816406 184.910156 "/>
<path style="fill:none;stroke-width:1.2;stroke-linecap:butt;stroke-linejoin:miter;stroke:rgb(0%,0%,100%);stroke-opacity:1;stroke-miterlimit:10;" d="M 142.816406 184.910156 L 140.839844 195.453125 "/>
<path style="fill:none;stroke-width:1.2;stroke-linecap:butt;stroke-linejoin:miter;stroke:rgb(0%,0%,0%);stroke-opacity:1;stroke-miterlimit:10;" d="M 149.359375 177.410156 L 147.777344 185.839844 "/>
<path style="fill:none;stroke-width:1.2;stroke-linecap:butt;stroke-linejoin:miter;stroke:rgb(0%,0%,100%);stroke-opacity:1;stroke-miterlimit:10;" d="M 147.777344 185.839844 L 146.195312 194.273438 "/>
<path style="fill:none;stroke-width:1.2;stroke-linecap:butt;stroke-linejoin:miter;stroke:rgb(0%,0%,0%);stroke-opacity:1;stroke-miterlimit:10;" d="M 165.027344 167.253906 L 144.792969 174.371094 "/>
<path style="fill:none;stroke-width:1.2;stroke-linecap:butt;stroke-linejoin:miter;stroke:rgb(0%,0%,100%);stroke-opacity:1;stroke-miterlimit:10;" d="M 140.839844 195.453125 L 148.980469 202.433594 "/>
<path style="fill:none;stroke-width:1.2;stroke-linecap:butt;stroke-linejoin:miter;stroke:rgb(0%,0%,0%);stroke-opacity:1;stroke-miterlimit:10;" d="M 148.980469 202.433594 L 157.121094 209.417969 "/>
<path style=" stroke:none;fill-rule:nonzero;fill:rgb(100%,100%,100%);fill-opacity:1;" d="M 130.839844 187.953125 L 151.839844 187.953125 L 151.839844 202.953125 L 130.839844 202.953125 Z M 130.839844 187.953125 "/>
<g style="fill:rgb(0%,0%,100%);fill-opacity:1;">
  <use xlink:href="#glyph0-2" x="130.839844" y="200.054688"/>
  <use xlink:href="#glyph0-3" x="137.817383" y="200.054688"/>
</g>
<g style="fill:rgb(0%,0%,100%);fill-opacity:1;">
  <use xlink:href="#glyph1-1" x="144.832031" y="195.171875"/>
</g>
<path style="fill:none;stroke-width:1.2;stroke-linecap:butt;stroke-linejoin:miter;stroke:rgb(0%,0%,0%);stroke-opacity:1;stroke-miterlimit:10;" d="M 157.121094 209.417969 L 167.238281 205.859375 "/>
<path style="fill:none;stroke-width:1.2;stroke-linecap:butt;stroke-linejoin:miter;stroke:rgb(0%,0%,100%);stroke-opacity:1;stroke-miterlimit:10;" d="M 167.238281 205.859375 L 177.355469 202.300781 "/>
<path style="fill:none;stroke-width:1.2;stroke-linecap:butt;stroke-linejoin:miter;stroke:rgb(0%,0%,0%);stroke-opacity:1;stroke-miterlimit:10;" d="M 157.46875 203.945312 L 165.5625 201.097656 "/>
<path style="fill:none;stroke-width:1.2;stroke-linecap:butt;stroke-linejoin:miter;stroke:rgb(0%,0%,100%);stroke-opacity:1;stroke-miterlimit:10;" d="M 165.5625 201.097656 L 173.65625 198.25 "/>
<path style="fill:none;stroke-width:1.2;stroke-linecap:butt;stroke-linejoin:miter;stroke:rgb(0%,0%,100%);stroke-opacity:1;stroke-miterlimit:10;" d="M 177.355469 202.300781 L 181.308594 181.21875 "/>
<path style=" stroke:none;fill-rule:nonzero;fill:rgb(100%,100%,100%);fill-opacity:1;" d="M 174.355469 196.800781 L 181.355469 196.800781 L 181.355469 207.800781 L 174.355469 207.800781 Z M 174.355469 196.800781 "/>
<g style="fill:rgb(0%,0%,100%);fill-opacity:1;">
  <use xlink:href="#glyph0-2" x="174.355469" y="205.463867"/>
</g>
<path style="fill:none;stroke-width:1.2;stroke-linecap:butt;stroke-linejoin:miter;stroke:rgb(0%,0%,100%);stroke-opacity:1;stroke-miterlimit:10;" d="M 181.308594 181.21875 L 173.167969 174.234375 "/>
<path style="fill:none;stroke-width:1.2;stroke-linecap:butt;stroke-linejoin:miter;stroke:rgb(0%,0%,0%);stroke-opacity:1;stroke-miterlimit:10;" d="M 173.167969 174.234375 L 165.027344 167.253906 "/>
<path style="fill:none;stroke-width:1.2;stroke-linecap:butt;stroke-linejoin:miter;stroke:rgb(0%,0%,0%);stroke-opacity:1;stroke-miterlimit:10;" d="M 199.621094 170.050781 L 190.464844 175.632812 "/>
<path style="fill:none;stroke-width:1.2;stroke-linecap:butt;stroke-linejoin:miter;stroke:rgb(0%,0%,100%);stroke-opacity:1;stroke-miterlimit:10;" d="M 190.464844 175.632812 L 181.308594 181.21875 "/>
<path style=" stroke:none;fill-rule:nonzero;fill:rgb(100%,100%,100%);fill-opacity:1;" d="M 178.308594 175.71875 L 185.308594 175.71875 L 185.308594 186.71875 L 178.308594 186.71875 Z M 178.308594 175.71875 "/>
<g style="fill:rgb(0%,0%,100%);fill-opacity:1;">
  <use xlink:href="#glyph0-2" x="178.308594" y="184.381836"/>
</g>
<path style="fill:none;stroke-width:1.2;stroke-linecap:butt;stroke-linejoin:miter;stroke:rgb(0%,0%,0%);stroke-opacity:1;stroke-miterlimit:10;" d="M 165.027344 167.253906 L 173.277344 147.453125 "/>
<path style="fill:none;stroke-width:1.2;stroke-linecap:butt;stroke-linejoin:miter;stroke:rgb(0%,0%,0%);stroke-opacity:1;stroke-miterlimit:10;" d="M 170.511719 167.214844 L 177.113281 151.375 "/>
<path style="fill:none;stroke-width:1.2;stroke-linecap:butt;stroke-linejoin:miter;stroke:rgb(0%,0%,0%);stroke-opacity:1;stroke-miterlimit:10;" d="M 173.277344 147.453125 L 162.109375 129.140625 "/>
<path style="fill:none;stroke-width:1.2;stroke-linecap:butt;stroke-linejoin:miter;stroke:rgb(0%,0%,0%);stroke-opacity:1;stroke-miterlimit:10;" d="M 173.277344 147.453125 L 194.65625 149.183594 "/>
<path style="fill:none;stroke-width:1.2;stroke-linecap:butt;stroke-linejoin:miter;stroke:rgb(0%,0%,0%);stroke-opacity:1;stroke-miterlimit:10;" d="M 194.65625 149.183594 L 201.640625 141.042969 "/>
<path style="fill:none;stroke-width:1.2;stroke-linecap:butt;stroke-linejoin:miter;stroke:rgb(0%,0%,100%);stroke-opacity:1;stroke-miterlimit:10;" d="M 201.640625 141.042969 L 208.621094 132.902344 "/>
<path style="fill:none;stroke-width:1.2;stroke-linecap:butt;stroke-linejoin:miter;stroke:rgb(0%,0%,0%);stroke-opacity:1;stroke-miterlimit:10;" d="M 194.65625 149.183594 L 199.621094 170.050781 "/>
<path style="fill:none;stroke-width:1.2;stroke-linecap:butt;stroke-linejoin:miter;stroke:rgb(0%,0%,0%);stroke-opacity:1;stroke-miterlimit:10;" d="M 190.242188 152.4375 L 194.214844 169.128906 "/>
<path style="fill:none;stroke-width:1.2;stroke-linecap:butt;stroke-linejoin:miter;stroke:rgb(0%,0%,100%);stroke-opacity:1;stroke-miterlimit:10;" d="M 208.621094 132.902344 L 219.164062 134.878906 "/>
<path style="fill:none;stroke-width:1.2;stroke-linecap:butt;stroke-linejoin:miter;stroke:rgb(0%,0%,0%);stroke-opacity:1;stroke-miterlimit:10;" d="M 219.164062 134.878906 L 229.703125 136.855469 "/>
<path style=" stroke:none;fill-rule:nonzero;fill:rgb(100%,100%,100%);fill-opacity:1;" d="M 201.621094 127.402344 L 215.621094 127.402344 L 215.621094 138.402344 L 201.621094 138.402344 Z M 201.621094 127.402344 "/>
<g style="fill:rgb(0%,0%,100%);fill-opacity:1;">
  <use xlink:href="#glyph0-2" x="201.621094" y="136.06543"/>
  <use xlink:href="#glyph0-3" x="208.598633" y="136.06543"/>
</g>
<path style="fill:none;stroke-width:1.2;stroke-linecap:butt;stroke-linejoin:miter;stroke:rgb(0%,0%,0%);stroke-opacity:1;stroke-miterlimit:10;" d="M 227.324219 137.691406 L 230.882812 147.808594 "/>
<path style="fill:none;stroke-width:1.2;stroke-linecap:butt;stroke-linejoin:miter;stroke:rgb(100%,0%,0%);stroke-opacity:1;stroke-miterlimit:10;" d="M 230.882812 147.808594 L 234.441406 157.925781 "/>
<path style="fill:none;stroke-width:1.2;stroke-linecap:butt;stroke-linejoin:miter;stroke:rgb(0%,0%,0%);stroke-opacity:1;stroke-miterlimit:10;" d="M 232.085938 136.015625 L 235.644531 146.132812 "/>
<path style="fill:none;stroke-width:1.2;stroke-linecap:butt;stroke-linejoin:miter;stroke:rgb(100%,0%,0%);stroke-opacity:1;stroke-miterlimit:10;" d="M 235.644531 146.132812 L 239.203125 156.25 "/>
<path style="fill:none;stroke-width:1.2;stroke-linecap:butt;stroke-linejoin:miter;stroke:rgb(0%,0%,0%);stroke-opacity:1;stroke-miterlimit:10;" d="M 229.703125 136.855469 L 243.667969 120.574219 "/>
<path style=" stroke:none;fill-rule:nonzero;fill:rgb(100%,100%,100%);fill-opacity:1;" d="M 232.820312 151.589844 L 240.820312 151.589844 L 240.820312 162.589844 L 232.820312 162.589844 Z M 232.820312 151.589844 "/>
<g style="fill:rgb(100%,0%,0%);fill-opacity:1;">
  <use xlink:href="#glyph0-1" x="232.820312" y="160.25293"/>
</g>
<path style="fill:none;stroke-width:1.2;stroke-linecap:butt;stroke-linejoin:miter;stroke:rgb(0%,0%,0%);stroke-opacity:1;stroke-miterlimit:10;" d="M 243.667969 120.574219 L 264.75 124.527344 "/>
<path style="fill:none;stroke-width:1.2;stroke-linecap:butt;stroke-linejoin:miter;stroke:rgb(0%,0%,0%);stroke-opacity:1;stroke-miterlimit:10;" d="M 104.324219 188.605469 L 84.09375 195.722656 "/>
<path style="fill:none;stroke-width:1.2;stroke-linecap:butt;stroke-linejoin:miter;stroke:rgb(0%,0%,0%);stroke-opacity:1;stroke-miterlimit:10;" d="M 104.324219 188.605469 L 120.605469 202.570312 "/>
<path style="fill:none;stroke-width:1.2;stroke-linecap:butt;stroke-linejoin:miter;stroke:rgb(0%,0%,0%);stroke-opacity:1;stroke-miterlimit:10;" d="M 84.09375 195.722656 L 67.8125 181.757812 "/>
<path style="fill:none;stroke-width:1.2;stroke-linecap:butt;stroke-linejoin:miter;stroke:rgb(0%,0%,0%);stroke-opacity:1;stroke-miterlimit:10;" d="M 85.75 190.496094 L 72.726562 179.324219 "/>
</g>
</svg>

<svg xmlns="http://www.w3.org/2000/svg" xmlns:xlink="http://www.w3.org/1999/xlink" width="300pt" height="300pt" viewBox="0 0 300 300"><defs><symbol overflow="visible"><path d="M.453 1.594v-7.938h4.5v7.938zm.5-.5h3.5v-6.938h-3.5zm0 0"/></symbol><symbol overflow="visible" id="a"><path d="M3.547-5.953c-.65 0-1.164.242-1.547.72-.375.48-.563 1.13-.563 1.952 0 .835.188 1.49.563 1.967.383.48.898.72 1.547.72.644 0 1.156-.24 1.53-.72.376-.476.564-1.132.564-1.968 0-.822-.187-1.474-.562-1.954-.375-.477-.887-.72-1.53-.72zm0-.734c.914 0 1.648.312 2.203.937.55.617.828 1.438.828 2.47 0 1.042-.277 1.87-.828 2.483-.555.617-1.29.922-2.203.922-.93 0-1.668-.305-2.22-.922C.774-1.41.5-2.237.5-3.28c0-1.033.273-1.853.828-2.47.55-.625 1.29-.938 2.22-.938zm0 0"/></symbol><symbol overflow="visible" id="b"><path d="M.89-6.563H2.08l2.906 5.485v-5.484h.86V0H4.656L1.75-5.484V0H.89zm0 0"/></symbol><symbol overflow="visible" id="c"><path d="M.89-6.563h.876v2.688H5v-2.688h.89V0H5v-3.125H1.766V0H.89zm0 0"/></symbol><symbol overflow="visible"><path d="M.406 1.422V-5.64h4V1.42zM.844.97h3.11v-6.157H.843zm0 0"/></symbol><symbol overflow="visible" id="d"><path d="M3.688-5.016v2.172h2.17v.672H3.69V0H3.03v-2.172H.845v-.672H3.03v-2.172zm0 0"/></symbol></defs><g><path fill="#fff" d="M0 0h300v300H0z"/><path d="M43.156 111.664l8.14 6.984" stroke-width="1.2" stroke="#f00" stroke-miterlimit="10" fill="none"/><path d="M51.297 118.648l8.14 6.98" stroke-width="1.2" stroke="#00f" stroke-miterlimit="10" fill="none"/><path d="M43.156 111.664l1.977-10.54" stroke-width="1.2" stroke="#f00" stroke-miterlimit="10" fill="none"/><path d="M45.133 101.125l1.976-10.543" stroke-width="1.2" stroke="#000" stroke-miterlimit="10" fill="none"/><path d="M39.156 106.164h8v11h-8zm0 0" fill="#fff"/><use xlink:href="#a" x="39.156" y="114.827" fill="#f00"/><path d="M59.438 125.63L57.46 136.17" stroke-width="1.2" stroke="#00f" stroke-miterlimit="10" fill="none"/><path d="M57.46 136.172l-1.976 10.54" stroke-width="1.2" stroke="#000" stroke-miterlimit="10" fill="none"/><path d="M52.438 120.13h14v11h-14zm0 0" fill="#fff"/><g fill="#00f"><use xlink:href="#b" x="52.438" y="128.792"/><use xlink:href="#c" x="59.415" y="128.792"/></g><path d="M54.648 144.332l-10.117 3.56" stroke-width="1.2" stroke="#000" stroke-miterlimit="10" fill="none"/><path d="M44.53 147.89l-10.116 3.56" stroke-width="1.2" stroke="#f00" stroke-miterlimit="10" fill="none"/><path d="M56.32 149.09l-10.117 3.558" stroke-width="1.2" stroke="#000" stroke-miterlimit="10" fill="none"/><path d="M46.203 152.648l-10.117 3.56" stroke-width="1.2" stroke="#f00" stroke-miterlimit="10" fill="none"/><path d="M55.484 146.71l16.282 13.966" stroke-width="1.2" stroke="#000" stroke-miterlimit="10" fill="none"/><path d="M27.25 148.328h8v11h-8zm0 0" fill="#fff"/><use xlink:href="#a" x="27.25" y="156.991" fill="#f00"/><path d="M71.766 160.676L92 153.56M75.46 164.727l16.188-5.696M67.813 181.758l3.953-21.082M92 153.56l16.277 13.963M108.277 167.523l10.118-3.558" stroke-width="1.2" stroke="#000" stroke-miterlimit="10" fill="none"/><path d="M118.395 163.965l10.117-3.56" stroke-width="1.2" stroke="#00f" stroke-miterlimit="10" fill="none"/><path d="M108.277 167.523l-3.953 21.082M102.922 168.7l-3.16 16.866" stroke-width="1.2" stroke="#000" stroke-miterlimit="10" fill="none"/><path d="M128.512 160.406l8.14 6.98" stroke-width="1.2" stroke="#00f" stroke-miterlimit="10" fill="none"/><path d="M136.652 167.387l8.14 6.984" stroke-width="1.2" stroke="#000" stroke-miterlimit="10" fill="none"/><path d="M121.512 154.906h14v11h-14zm0 0" fill="#fff"/><g fill="#00f"><use xlink:href="#b" x="121.512" y="163.569"/><use xlink:href="#c" x="128.489" y="163.569"/></g><path d="M144.793 174.37l-1.977 10.54" stroke-width="1.2" stroke="#000" stroke-miterlimit="10" fill="none"/><path d="M142.816 184.91l-1.976 10.543" stroke-width="1.2" stroke="#00f" stroke-miterlimit="10" fill="none"/><path d="M149.36 177.41l-1.583 8.43" stroke-width="1.2" stroke="#000" stroke-miterlimit="10" fill="none"/><path d="M147.777 185.84l-1.582 8.433" stroke-width="1.2" stroke="#00f" stroke-miterlimit="10" fill="none"/><path d="M165.027 167.254l-20.234 7.117" stroke-width="1.2" stroke="#000" stroke-miterlimit="10" fill="none"/><path d="M140.84 195.453l8.14 6.98" stroke-width="1.2" stroke="#00f" stroke-miterlimit="10" fill="none"/><path d="M148.98 202.434l8.14 6.984" stroke-width="1.2" stroke="#000" stroke-miterlimit="10" fill="none"/><path d="M130.84 187.953h21v15h-21zm0 0" fill="#fff"/><g fill="#00f"><use xlink:href="#b" x="130.84" y="200.055"/><use xlink:href="#c" x="137.817" y="200.055"/></g><use xlink:href="#d" x="144.832" y="195.172" fill="#00f"/><path d="M157.12 209.418l10.118-3.56" stroke-width="1.2" stroke="#000" stroke-miterlimit="10" fill="none"/><path d="M167.238 205.86l10.117-3.56" stroke-width="1.2" stroke="#00f" stroke-miterlimit="10" fill="none"/><path d="M157.47 203.945l8.093-2.847" stroke-width="1.2" stroke="#000" stroke-miterlimit="10" fill="none"/><path d="M165.563 201.098l8.093-2.848M177.355 202.3l3.954-21.08" stroke-width="1.2" stroke="#00f" stroke-miterlimit="10" fill="none"/><path d="M174.355 196.8h7v11h-7zm0 0" fill="#fff"/><use xlink:href="#b" x="174.355" y="205.464" fill="#00f"/><path d="M181.31 181.22l-8.142-6.986" stroke-width="1.2" stroke="#00f" stroke-miterlimit="10" fill="none"/><path d="M173.168 174.234l-8.14-6.98M199.62 170.05l-9.155 5.583" stroke-width="1.2" stroke="#000" stroke-miterlimit="10" fill="none"/><path d="M190.465 175.633l-9.156 5.586" stroke-width="1.2" stroke="#00f" stroke-miterlimit="10" fill="none"/><path d="M178.31 175.72h7v11h-7zm0 0" fill="#fff"/><use xlink:href="#b" x="178.309" y="184.382" fill="#00f"/><path d="M165.027 167.254l8.25-19.8M170.512 167.215l6.6-15.84M173.277 147.453L162.11 129.14M173.277 147.453l21.38 1.73M194.656 149.184l6.985-8.14" stroke-width="1.2" stroke="#000" stroke-miterlimit="10" fill="none"/><path d="M201.64 141.043l6.98-8.14" stroke-width="1.2" stroke="#00f" stroke-miterlimit="10" fill="none"/><path d="M194.656 149.184l4.965 20.867M190.242 152.438l3.973 16.69" stroke-width="1.2" stroke="#000" stroke-miterlimit="10" fill="none"/><path d="M208.62 132.902l10.544 1.977" stroke-width="1.2" stroke="#00f" stroke-miterlimit="10" fill="none"/><path d="M219.164 134.88l10.54 1.975" stroke-width="1.2" stroke="#000" stroke-miterlimit="10" fill="none"/><path d="M201.62 127.402h14v11h-14zm0 0" fill="#fff"/><g fill="#00f"><use xlink:href="#b" x="201.621" y="136.065"/><use xlink:href="#c" x="208.599" y="136.065"/></g><path d="M227.324 137.69l3.56 10.12" stroke-width="1.2" stroke="#000" stroke-miterlimit="10" fill="none"/><path d="M230.883 147.81l3.558 10.116" stroke-width="1.2" stroke="#f00" stroke-miterlimit="10" fill="none"/><path d="M232.086 136.016l3.56 10.117" stroke-width="1.2" stroke="#000" stroke-miterlimit="10" fill="none"/><path d="M235.645 146.133l3.558 10.117" stroke-width="1.2" stroke="#f00" stroke-miterlimit="10" fill="none"/><path d="M229.703 136.855l13.965-16.28" stroke-width="1.2" stroke="#000" stroke-miterlimit="10" fill="none"/><path d="M232.82 151.59h8v11h-8zm0 0" fill="#fff"/><use xlink:href="#a" x="232.82" y="160.253" fill="#f00"/><path d="M243.668 120.574l21.082 3.953M104.324 188.605l-20.23 7.118M104.324 188.605l16.28 13.965M84.094 195.723l-16.28-13.965M85.75 190.496l-13.023-11.172" stroke-width="1.2" stroke="#000" stroke-miterlimit="10" fill="none"/></g></svg>
